!!!COM: Palestrina, Giovanni Perluigi da
!!!OPR: Missa O virgo simul et mater
!!!OMD: Credo
!!!OTL: Crucifixus
**kern	**kern	**kern	**kern
*Itenor	*Icalto	*Icalto	*Icant
!Tenor	!Altus 2	!Altus 1	!Cantus
*clefGv2	*clefG2	*clefG2	*clefG2
*k[b-]	*k[b-]	*k[b-]	*k[b-]
*G:dor	*G:dor	*G:dor	*G:dor
*M4/2	*M4/2	*M4/2	*M4/2
=87	=87	=87	=87
0r	1g	0r	0r
.	2g	.	.
.	[2g	.	.
=88	=88	=88	=88
0r	2g]	0r	1r
.	2f	.	.
.	2.b-	.	1dd
.	4a	.	.
=89	=89	=89	=89
0r	2g	0r	2dd
.	2f	.	1dd
.	1e	.	.
.	.	.	2cc
=90	=90	=90	=90
0r	1d	1r	2.ff
.	.	.	4ee-
.	2B-	1g	2dd
.	2c	.	2cc
=91	=91	=91	=91
0r	4G	2g	1b-
.	4A	.	.
.	4B-	1g	.
.	4c	.	.
.	2d	.	1a
.	2d	2f	.
=92	=92	=92	=92
2r	0G	2.b-	2.dd
2d	.	.	.
.	.	4a	4cc
2d	.	2g	2b-
[2d	.	2f	2b-
=93	=93	=93	=93
2d]	1A	1e	1a
2c	.	.	.
2.f	2.d	1d	[1a
4e	4e	.	.
=94	=94	=94	=94
2d	4f	1r	1a]
.	4g	.	.
2c	1a	.	.
1B-	.	1d	2r
.	2g	.	2dd
=95	=95	=95	=95
2A	2a	2e	2cc
2d	4r	2f	2dd
.	4d	.	.
2c	2e	2e	2g
2d	2f	2a	[2dd
=96	=96	=96	=96
2G	2g	2b-	4dd]
.	.	.	4ee
2A	4f	2a	2.ff
.	4e	.	.
1B-	2d	2f	.
.	.	.	4ee
.	2d	2g	[2dd
=97	=97	=97	=97
1A	1e	1a	2dd]
.	.	.	2cc#
2r	1d	1f	2dd
[2B-	.	.	[2dd
=98	=98	=98	=98
2B-]	1f	1r	2dd]
2A	.	.	2cc
1G	1g	2r	1b-
.	.	[2dd	.
=99	=99	=99	=99
1F#	1r	2dd]	1a
.	.	2cc	.
1G	2r	1b-	2g
.	[2dd	.	2f
=100	=100	=100	=100
1A	2dd]	1a	1e
.	2cc	.	.
2.B-	1b-	2g	2d
.	.	[2f	2dd
4c	.	.	.
=101	=101	=101	=101
0d	2a	4f]	1dd
.	.	8g	.
.	.	8a	.
.	1g	2b-	.
.	.	1a	1dd
.	2f#	.	.
=102	=102	=102	=102
1G	4g	1g	2b-
.	4a	.	.
.	4b-	.	2dd
.	4cc	.	.
2r	2b-	1r	2dd
2d	4a	.	2dd
.	4g	.	.
=103	=103	=103	=103
2d	1a	2r	1ff
2d	.	2a	.
1f	1r	2a	1cc
.	.	2a	.
=104	=104	=104	=104
1c	0r	2cc	2.ee-
.	.	2g	.
.	.	.	4ee-
1g	.	1b-	2dd
.	.	.	[2ee-
=105	=105	=105	=105
2f#	1r	2a	4ee-]
.	.	.	4dd
2g	.	2b-	1dd
1e-	2r	1g	.
.	2g	.	2cc
=106	=106	=106	=106
1d	2f	0a	2dd
.	2d	.	2dd
1r	4f	.	2cc
.	4g	.	.
.	4a	.	2a
.	4f	.	.
=107	=107	=107	=107
1r	4g	0r	4b-
.	4a	.	4a
.	2.b-	.	4g
.	.	.	4a
1g	.	.	4b-
.	4a	.	4cc
.	4b-	.	4dd
.	4g	.	4b-
=108	=108	=108	=108
2f	2a	0r	2cc
2d	2.b-	.	2dd
1e-	.	.	1g
.	4a	.	.
.	[2g	.	.
=109	=109	=109	=109
1d	2g]	1r	1a
.	2f#	.	.
2G	2g	[1b-	2r
[2G	[2g	.	[2dd
=110	=110	=110	=110
2G]	2g]	2b-]	2dd]
2d	2f	2a	2dd
1c	1g	1cc	1ee-
=111	=111	=111	=111
2B-	0b-	2f	2dd
4G	.	2g	4b-
4A	.	.	4cc
4B-	.	2.f	4dd
4c	.	.	4ee
4d	.	.	[2ff
4e	.	4g	.
=112	=112	=112	=112
2f	2r	4a	2ff]
.	.	4f	.
2g	2b-	1b-	2ee
1f	1cc	.	[1ff
.	.	2a	.
=113	=113	=113	=113
1B-	2dd	1b-	2ff]
.	2b-	.	2dd
1r	2g	1r	2b-
.	2b-	.	2dd
=114	=114	=114	=114
0r	2a	1r	2cc
.	2g	.	2b-
.	2.f	2r	2a
.	.	2a	[2ff
.	4g	.	.
=115	=115	=115	=115
0r	4a	2f	4ff]
.	4b-	.	8ee
.	.	.	8dd
.	4cc	2a	2.ee
.	4a	.	.
.	2b-	2g	.
.	.	.	4dd
.	2a	2f	[2dd
=116	=116	=116	=116
1r	1g	1e	2dd]
.	.	.	2cc#
2r	2.a	2.d	2dd
2d	.	.	2ff
.	8g	4e	.
.	8a	.	.
=117	=117	=117	=117
2B-	2b-	2.f	2dd
2d	2.a	.	2ff
.	.	8e	.
.	.	8f	.
2c	.	1g	2ee
.	4g	.	.
2B-	[2g	.	2dd
=118	=118	=118	=118
1A	2g]	2.c	2cc
.	2f#	.	2.cc
.	.	4d	.
1G	1g	4e	.
.	.	4f	4b-
.	.	[2g	4b-
.	.	.	8a
.	.	.	8g
=119	=119	=119	=119
1d	2r	2g]	1a
.	1d	2f#	.
1G	.	2g	2b
.	[2g	2d	2b
=120	=120	=120	=120
2.c	4g]	2.e	2.cc
.	4f	.	.
.	2g	.	.
4B-	.	4d	4dd
2c	1a	2e	2cc
2d	.	2f	2a
=121	=121	=121	=121
2B-	2.g	2d	2b-
2c	.	2e	2g
.	4g	.	.
[1F	1f	1f	1a
=122	=122	=122	=122
1F]	1a	2r	2f
.	.	2c	2.cc
1r	2.a	2.f	.
.	.	.	4b-
.	.	.	2cc
.	4g	4e	.
=123	=123	=123	=123
1r	2a	2f	1dd
.	2b-	2g	.
2r	2g	2e	1cc
2F	2a	2f	.
=124	=124	=124	=124
2.f	2b-	0B-	4dd
.	.	.	4ee
.	2.dd	.	4ff
4e	.	.	4gg
2f	.	.	4ff
.	4cc	.	4ee
2g	[2b-	.	2dd
=125	=125	=125	=125
2e	4b-]	1r	1cc
.	8a	.	.
.	8g	.	.
2f	2a	.	.
2B-	2b-	1f	1dd
2B-	2b-	.	.
=126	=126	=126	=126
2F	2a	1f	2cc
2F	2a	.	2cc
[1G	2.g	1d	[1b-
.	4g	.	.
=127	=127	=127	=127
2G]	0d	2g	2b-]
2G	.	2g	2b-
2D	.	2f	2a
[2d	.	2a	[2ff
=128	=128	=128	=128
2d]	0r	2b-	2ff]
2A	.	1cc	2ee
1B-	.	.	1dd
.	.	[2b-	.
=129	=129	=129	=129
1f	0r	2b-]	1cc
.	.	2a	.
1d	.	2b-	1dd
.	.	[2a	.
=130	=130	=130	=130
2e-	0r	4a]	2b-
.	.	4g	.
2c	.	1g	2cc
1d	.	.	1a
.	.	2f#	.
=131	=131	=131	=131
4G	1.b-	1g	2g
4A	.	.	.
4B-	.	.	1dd
4c	.	.	.
2d	.	1r	.
[2f	2a	.	2cc
=132	=132	=132	=132
2f]	1g	2r	2dd
2e	.	1cc	2ee
1d	1f	.	[1ff
.	.	2b-	.
=133	=133	=133	=133
1c	1cc	2a	2ff]
.	.	1g	2ee
1d	2b-	.	2dd
.	[2a	2f	[2dd
=134	=134	=134	=134
2B-	2a]	2d	2dd]
2c	1g	2e-	4cc
.	.	.	4b-
1A	.	1c	1cc
.	2f#	.	.
=135	=135	=135	=135
0G	0g	0d	0b
*-	*-	*-	*-
!!!CDT: 1525/^1526/-1594/2/2
!!!OCY: Italia
!!!AGN: Mass (Parody)
!!!AST: renaissance, vocal
!!!ASW: Motet 1572 (Palestrina)
!!!PWK: Masses, Book 10
!!!RNB: Cadence finals: D
!!!YOR: Le Opere Complete, v. 27, p. 89
!!!YOO: Rome, Italy: Fratelli Scalera
!!!END: 1992//
!!!EED: John Miller
!!!YEC: Copyright 2000, John Miller
!!!YEN: United States of America
!!!YEM: Rights to all derivative electronic formats reserved.
!!!YEM: Refer to licensing agreement for further details.
!!!YEM: This file must be accompanied by the licensing agreement.
!!!YEM: A copy of the licensing agreement may be found at http://www.music-cog.ohio-state.edu/HumdrumDatabases/Palestrina/license.txt
!!!EMD: converted to Humdrum by Bret Aarden
